X:3
T:The Snowplough Reel
R:reel
C:Dan Hughie MacEachern
D:Buddy MacMaster, Cape Breton Tradition 2003
B:MacEachern Collection Vol. 1 (1975)
Z:Paul Stewart Cranford (P.S.C.), <http://www.cranfordpub.com>
L:1/8
Q:333
M:C|
K:A
B,|A,2 A,C {E}A2 AB|cAec dBBc|A,2 A,C {E}A2 AE|FDEC A,/A,/A, A,B,|
A,2 A,C {E}A2 AB|cAec dBBd|cAFA GBEG|AFEC A,/A,/A, A,||
||d|Tc2 ea Tc2 ef|ecae fBBd|Tc2 ea Tc2 ef|ecdB A/A/A Ad|
Tc2 ea Tc2 ef|ecae fBBd|cAFA GBEG|AFEC A,/A,/A, A,|]
W:Copyrights - Margaret Dunn, Antigonish, NS
